!!!OTL-incipit: DIE LEINEWEBER HABEN EINE SAUBERE ZUNFT
!!!ARE: Europa, Mitteleuropa, Deutschland, Greifswald
!!!SCT: Z0199
!!!TXL: @@DE
!!!YEM: Copyright 1995, estate of Helmut Schaffrath.
**kern	**text
*ICvox	*
*M2/4	*
*k[]	*
*C:	*
!LO:TX:a:t=Jn Greifswald gehört und Altdeutſch.	!
{8g	Die
=1	=1
[8cc	Lei-
8cc]	-ne-
8cc	-we-
8cc	-ber
=2	=2
8cc	ha-
8cc	-ben
8cc	ei-
8cc	-ne
=3	=3
4cc	ſau-
8bL	-bere
8aJ	.
=4	=4
4g	Ʒunft,
4r}	.
=5	=5
{4a	Ha-
8a	-rum
8a	did-
=6	=6
4b	-ſcha-
4b	-rum
=7	=7
!LO:TX:a:t=Mit den Füßen zu stampfen. (CCC)	!
4c	.
4c	.
=8	=8
4c	.
8r}	.
{8g	Mitt-
=9	=9
[8cc	-fa-
8cc]	.
8cc	-ſten
8cc	.
=10	=10
8cc	hal-
8cc	-ten
8cc	ſie
8cc	Ʒu-
=11	=11
4cc	-ſam-
8bL	-men-
8aJ	.
=12	=12
4g	-kunft,
4r}	.
=13	=13
{4a	Ha-
8a	-rum
8a	did-
=14	=14
4b	-ſcha-
4b	-rum
=15	=15
!LO:TX:a:t=Mit den Füßen zu stampfen. (CCC)	!
4c	.
4c	.
=16	=16
4c	.
4r}	.
=17	=17
{8g	a-
8g	-ſche-
8g	-graue,
8g	.
=18	=18
8g	dunkel-
8g	.
8g	-blaue,
8g	.
=19	=19
!LO:TX:a:t=Mit den Füßen zu stampfen. (CCC)	!
4c	mir
4c	ein
=20	=20
4c	Viertel,
4r}	.
=21	=21
{8g	a-
8g	-ſche-
8g	-graue,
8g	.
=22	=22
8g	dunkel-
8g	.
8g	-blaue,
8g	.
=23	=23
!LO:TX:a:t=Mit den Füßen zu stampfen. (CCC)	!
4c	dir
4c	ein
=24	=24
4c	Viertel,
4r}	.
=25	=25
{4ee	fein
8ee	o-
8ee	-der
=26	=26
2ff	grob,
=27	=27
4dd	Geld
4dd	giebts
=28	=28
2gg}	doch,
=29	=29
{8cc	a-
8cc	-ſche-
8cc	-graue,
8cc	.
=30	=30
8dd	dunkel-
8dd	.
8dd	-blaue.
8dd	.
=31	=31
!LO:TX:a:t=Mit den Füßen zu stampfen. (CCC)	!
4c	.
4c	.
=32	=32
4c	.
8r}	.
==	==
!!!AGN: Schiffer -, Handwerker - Lied
!!!ONB: ESAC (Essen Associative Code) Database: ZUCCAL
!!!AMT: simple duple
!!!AIN: vox
!!!EED: Helmut Schaffrath
!!!EEV: 1.0
!!!GTL: III. Soldaten-, Jaeger-, Schiffer-, Fuhrmanns- und Handwerks-Lieder.
!!!URL-scan: https://www.digitale-sammlungen.de/de/view/bsb11160571?page=369
!!!ENC: Anna Maria Matuszewska
!!!EEV: 2025/01/28
*-	*-
